src/assets/icons/phone.svg

<svg width="14" height="14" viewBox="0 0 14 14" fill="none" xmlns="http://www.w3.org/2000/svg">
<g id="phone">
<g clip-path="url(#clip0_156_4494)">
<path id="Vector" d="M12.1206 14C12.0582 14 11.9982 13.9976 11.9382 13.9912C9.86858 13.7672 7.85658 13.0528 6.11658 11.9264C4.50298 10.9032 3.10378 9.50721 2.07498 7.89041C0.943781 6.14881 0.228581 4.13201 0.00858065 2.06321C-0.0378194 1.55281 0.114981 1.064 0.437381 0.6776C0.760581 0.2912 1.21578 0.0536078 1.71818 0.00800781C1.76858 0.00240781 1.82778 0 1.88618 0H3.81658C3.82298 0 3.82938 0 3.83418 0C4.76458 0 5.56618 0.693607 5.69738 1.62001C5.77418 2.19681 5.91418 2.75921 6.11578 3.29921C6.37418 3.98481 6.20698 4.76561 5.69018 5.28721L5.20378 5.7728C5.97098 6.9848 7.00058 8.0128 8.21578 8.7792L8.70298 8.2936C9.22698 7.7768 10.0078 7.61041 10.695 7.86801C11.2366 8.06961 11.8006 8.2104 12.371 8.2848C13.3222 8.4176 14.019 9.23521 13.999 10.1904V12.1096C14.0014 12.6104 13.807 13.0848 13.4518 13.4424C13.0974 13.8 12.6246 13.9976 12.1206 14ZM3.82938 1.2C3.82698 1.2 3.82458 1.2 3.82218 1.2H1.88618C1.64218 1.2192 1.47658 1.3064 1.35978 1.4472C1.24298 1.5872 1.18698 1.764 1.20378 1.9464C1.40298 3.8192 2.05338 5.65361 3.08538 7.24241C4.02298 8.71521 5.29418 9.984 6.76458 10.916C8.35418 11.9448 10.1838 12.5952 12.063 12.7984C12.0646 12.7984 12.067 12.7984 12.0686 12.7984C12.303 12.7992 12.4742 12.7264 12.6022 12.5976C12.731 12.468 12.8014 12.296 12.8006 12.1136V10.1848C12.8006 10.18 12.8006 10.1744 12.8006 10.1696C12.8094 9.8216 12.5558 9.52241 12.211 9.47521C11.5566 9.38881 10.9038 9.22641 10.2766 8.99281C10.027 8.89921 9.74138 8.9584 9.54938 9.1464L8.73178 9.9592C8.53978 10.1488 8.24618 10.1872 8.01258 10.056C6.30778 9.08881 4.89498 7.67761 3.92698 5.97681C3.79258 5.74161 3.83258 5.4464 4.02378 5.2552L4.84058 4.43921C5.02618 4.25281 5.08698 3.96881 4.99258 3.72001C4.75818 3.09521 4.59578 2.44321 4.50938 1.78241C4.46218 1.45201 4.16938 1.2 3.82938 1.2Z" fill="black"/>
</g>
</g>
<defs>
<clipPath id="clip0_156_4494">
<rect width="14" height="14" fill="white"/>
</clipPath>
</defs>
</svg>

<svg xmlns="http://www.w3.org/2000/svg" fill="none" viewBox="0 0 14 14"><g clip-path="url(#a)"><path fill="#000" d="M12.12 14q-.092 0-.182-.009a13.4 13.4 0 0 1-5.821-2.065A13.2 13.2 0 0 1 2.075 7.89 13.34 13.34 0 0 1 .009 2.063 1.88 1.88 0 0 1 1.887 0h1.947c.93 0 1.732.694 1.863 1.62.077.577.217 1.14.419 1.68a1.89 1.89 0 0 1-.426 1.987l-.486.486a9.7 9.7 0 0 0 3.012 3.006l.487-.485a1.9 1.9 0 0 1 1.992-.426 7.7 7.7 0 0 0 1.676.417c.951.133 1.648.95 1.628 1.905v1.92c.002.5-.192.975-.547 1.332A1.87 1.87 0 0 1 12.12 14M3.83 1.2H1.885c-.244.02-.41.106-.526.247a.68.68 0 0 0-.156.5c.199 1.872.85 3.707 1.881 5.295a12 12 0 0 0 3.68 3.674 12.2 12.2 0 0 0 5.298 1.882h.006c.234.001.405-.072.533-.2.129-.13.2-.302.199-.484V10.17a.683.683 0 0 0-.59-.695 9 9 0 0 1-1.934-.482.7.7 0 0 0-.728.153l-.817.813a.6.6 0 0 1-.72.097 10.9 10.9 0 0 1-4.085-4.08.6.6 0 0 1 .097-.72l.817-.817a.68.68 0 0 0 .152-.719 8.8 8.8 0 0 1-.484-1.938.69.69 0 0 0-.68-.582"/></g><defs><clipPath id="a"><path fill="#fff" d="M0 0h14v14H0z"/></clipPath></defs></svg>
